src/assets/image/linkedin.svg

<svg xmlns:xlink="http://www.w3.org/1999/xlink" xmlns="http://www.w3.org/2000/svg" width="52" height="14" viewBox="0 0 52 14" fill="none">
									<path d="M16.0684 7.87208V11.6042H14.1895V8.32167C14.1895 7.31958 13.6338 6.9025 13.1158 6.9025C12.7603 6.89229 12.4152 7.0249 12.1565 7.2712C11.8979 7.51749 11.7466 7.85732 11.7361 8.21604C11.7334 8.26204 11.7334 8.30817 11.7361 8.35417V11.6042H9.89474V5.375H11.6663V6.25521H11.6905C11.8757 5.87333 12.6675 5.23958 13.7466 5.23958C14.8256 5.23958 16.0684 5.97625 16.0684 7.87208ZM6.94211 11.6042H8.82105V5.375H6.94211V11.6042ZM7.88158 2.24688C7.66716 2.24955 7.45832 2.31614 7.28132 2.43828C7.10432 2.56042 6.96707 2.73264 6.88684 2.93329C6.80662 3.13394 6.787 3.35405 6.83045 3.56592C6.87389 3.77779 6.97848 3.97197 7.13103 4.12402C7.28359 4.27607 7.4773 4.3792 7.6878 4.42043C7.89831 4.46167 8.1162 4.43917 8.31406 4.35577C8.51192 4.27237 8.68092 4.13179 8.79979 3.95171C8.91866 3.77164 8.98209 3.56011 8.98211 3.34375C8.98211 3.05643 8.86899 2.78088 8.66763 2.57772C8.46628 2.37455 8.19318 2.26042 7.90842 2.26042L7.88158 2.24688ZM51.5 1.44792V12.5521C51.5 12.8035 51.401 13.0446 51.2248 13.2224C51.0486 13.4001 50.8097 13.5 50.5605 13.5H39.5553C39.3061 13.5 39.0671 13.4001 38.891 13.2224C38.7148 13.0446 38.6158 12.8035 38.6158 12.5521V1.44792C38.6158 1.19651 38.7148 0.955407 38.891 0.777638C39.0671 0.599869 39.3061 0.5 39.5553 0.5L50.5605 0.5C50.8097 0.5 51.0486 0.599869 51.2248 0.777638C51.401 0.955407 51.5 1.19651 51.5 1.44792ZM42.3737 5.375H40.4947V11.6042H42.3737V5.375ZM42.5347 3.34375C42.5374 3.12415 42.4754 2.9087 42.3567 2.72463C42.238 2.54056 42.0678 2.39615 41.8678 2.30964C41.6677 2.22314 41.4467 2.19844 41.2327 2.23865C41.0188 2.27887 40.8214 2.38221 40.6656 2.53559C40.5099 2.68898 40.4027 2.88552 40.3576 3.10038C40.3125 3.31523 40.3316 3.53874 40.4125 3.74265C40.4933 3.94656 40.6322 4.12171 40.8117 4.24594C40.9912 4.37018 41.2031 4.43793 41.4208 4.44063H41.4342C41.5752 4.44423 41.7155 4.41976 41.8472 4.36862C41.9788 4.31748 42.0992 4.24067 42.2014 4.14258C42.3036 4.04449 42.3856 3.92704 42.4428 3.79694C42.5 3.66685 42.5313 3.52665 42.5347 3.38438V3.34375ZM49.6211 7.87208C49.6211 5.97625 48.3783 5.23958 47.2992 5.23958C46.2202 5.23958 45.4203 5.87333 45.2431 6.25521H45.2189V5.375H43.4474V11.6042H45.3263V8.35417C45.3263 7.35479 46.0001 6.91063 46.655 6.91063C47.1918 6.91063 47.7421 7.32771 47.7421 8.32979V11.6042H49.6211V7.87208ZM2.64737 2.39583H0.5V11.6042H6.13684V9.70833H2.64737V2.39583ZM29.4895 8.56271V9.10438H24.9263C24.9296 9.14459 24.9396 9.18396 24.9558 9.22083C25.1115 9.74354 25.6725 10.185 26.4993 10.185C26.76 10.1982 27.0203 10.1503 27.2597 10.0451C27.499 9.93982 27.711 9.78006 27.8789 9.57833L29.2479 10.4396C28.9144 10.8633 28.4866 11.2018 27.9993 11.4277C27.512 11.6535 26.9788 11.7604 26.4429 11.7396C24.6418 11.7396 23.0474 10.6346 23.0474 8.51396C23.0474 6.39333 24.6579 5.23958 26.3865 5.23958C28.1152 5.23958 29.4895 6.40688 29.4895 8.56271ZM27.6105 7.8125C27.6105 7.1625 27.1918 6.62625 26.3355 6.62625C25.5303 6.62625 24.9693 7.16792 24.9263 7.8125H27.6105ZM23.3856 5.375H21.0825L19.0586 7.91271H19.0211V2.39583H17.1421V11.6042H19.0211V8.625H19.0586L21.1308 11.6042H23.4849L20.9537 8.19979L23.3856 5.375ZM34.8579 2.39583H36.7368V11.6042H34.9653V10.7917H34.9411C34.7049 11.2033 34.0714 11.7369 32.9548 11.7369C31.6127 11.7369 30.0263 10.7537 30.0263 8.48688C30.0263 6.4475 31.3953 5.25042 32.9306 5.25042C33.2864 5.24518 33.6393 5.31472 33.9669 5.4546C34.2946 5.59449 34.5898 5.80165 34.8337 6.06292H34.8579V2.39583ZM34.9384 8.48688C34.9438 8.28271 34.9092 8.07947 34.8367 7.88879C34.7642 7.69811 34.6551 7.52371 34.5158 7.37557C34.3764 7.22743 34.2095 7.10844 34.0246 7.02541C33.8396 6.94238 33.6403 6.89693 33.4379 6.89167H33.3977C33.0037 6.88221 32.6221 7.03093 32.3368 7.30515C32.0514 7.57937 31.8856 7.95667 31.8757 8.35417C31.8757 8.39479 31.8757 8.43271 31.8757 8.47333C31.8637 8.67251 31.8907 8.87212 31.9552 9.06076C32.0197 9.2494 32.1203 9.42338 32.2514 9.57277C32.3826 9.72216 32.5415 9.84403 32.7193 9.93142C32.8971 10.0188 33.0902 10.07 33.2876 10.0821H33.395C33.8091 10.0764 34.2041 9.90527 34.4934 9.60626C34.7827 9.30725 34.9427 8.90472 34.9384 8.48688Z" fill="#0A66C2"></path>
									</svg>

<svg xmlns="http://www.w3.org/2000/svg" width="52" height="14" fill="none"><path fill="#0A66C2" d="M16.068 7.872v3.732H14.19V8.322c0-1.002-.555-1.42-1.073-1.42-.356-.01-.7.123-.96.37a1.36 1.36 0 0 0-.42.944 1.179 1.179 0 0 0 0 .138v3.25H9.895V5.375h1.771v.88h.024c.186-.382.978-1.015 2.057-1.015s2.321.736 2.321 2.632Zm-9.126 3.732h1.879V5.375H6.942v6.23Zm.94-9.357a1.08 1.08 0 0 0-.995.686 1.106 1.106 0 0 0 .244 1.191 1.084 1.084 0 0 0 1.183.232 1.104 1.104 0 0 0 .668-1.012c0-.288-.113-.563-.314-.766a1.069 1.069 0 0 0-.76-.318l-.026-.013Zm43.618-.8v11.105a.952.952 0 0 1-.275.67.935.935 0 0 1-.665.278H39.555c-.249 0-.488-.1-.664-.278a.952.952 0 0 1-.275-.67V1.448c0-.251.099-.493.275-.67A.935.935 0 0 1 39.555.5H50.56c.25 0 .489.1.665.278a.952.952 0 0 1 .275.67Zm-9.126 3.928h-1.88v6.23h1.88v-6.23Zm.16-2.031a1.117 1.117 0 0 0-.666-1.034 1.092 1.092 0 0 0-1.202.226 1.114 1.114 0 0 0 .755 1.905h.013a1.066 1.066 0 0 0 .767-.298 1.083 1.083 0 0 0 .334-.759v-.04Zm7.087 4.528c0-1.896-1.243-2.632-2.322-2.632s-1.879.633-2.056 1.015h-.024v-.88h-1.772v6.23h1.88v-3.25c0-1 .673-1.444 1.328-1.444.537 0 1.087.417 1.087 1.419v3.274h1.88V7.872ZM2.647 2.396H.5v9.208h5.637V9.708h-3.49V2.396ZM29.49 8.563v.541h-4.564c.004.04.014.08.03.117.155.523.716.964 1.543.964a1.679 1.679 0 0 0 1.38-.607l1.369.862a3.42 3.42 0 0 1-1.249.988 3.389 3.389 0 0 1-1.556.312c-1.801 0-3.396-1.105-3.396-3.226 0-2.12 1.61-3.274 3.34-3.274 1.728 0 3.102 1.167 3.102 3.323Zm-1.88-.75c0-.65-.418-1.187-1.274-1.187-.806 0-1.367.542-1.41 1.186h2.684Zm-4.224-2.438h-2.303l-2.024 2.538h-.038V2.396h-1.879v9.208h1.88V8.625h.037l2.072 2.98h2.354L20.954 8.2l2.432-2.825Zm11.472-2.98h1.879v9.21h-1.772v-.813h-.024c-.236.411-.87.945-1.986.945-1.342 0-2.929-.983-2.929-3.25 0-2.04 1.37-3.237 2.905-3.237a2.543 2.543 0 0 1 1.903.813h.024V2.396Zm.08 6.092a1.567 1.567 0 0 0-.422-1.111 1.542 1.542 0 0 0-1.078-.484h-.04a1.48 1.48 0 0 0-1.061.413 1.507 1.507 0 0 0-.461 1.05v.118a1.531 1.531 0 0 0 .375 1.1 1.508 1.508 0 0 0 1.037.51h.107c.414-.007.81-.178 1.098-.477.29-.299.45-.701.445-1.12Z"/></svg>
